X:34
T:Jerry Buck. JBi.34
M:C
L:1/8
Q:1/4=120
S:James Biggins MS, Leeds, 1779.
R:.Misc.
O:England
A:Yorkshire
Z:vmp.Nick Barber & Chris Partington
K:Bb
B-dfb (Acf)a|(GBe).g .f(cBA)|.B(GFE) .B(FED)|\
â€œ^A, in msâ€B,B A/B/c/A/B2B,2:|!
|:B2(d/c/B) fBdB|Fc A/B/c/A/ Fc A/B/c/A/|\
B2(d/c/B) fBgB|GB A/B/c/A/B2B,2:|!
|:bfdB fdBF|Gc=Bd cBcG|bagf edcB|FB A/B/c/A/B2B,2:|

